X:1
T:Lift Thy Face to the Light!
T:Lift Thy Face to the Light!
T:William Edie Marks
T:Ida Lilliard Reed, 1906
T:Public Domain Courtesy of the Cyber Hymnal™
T:Public Domain Courtesy of the Cyber Hymnal™
C:William Edie Marks
Z:Public Domain
Z:Courtesy of the Cyber Hymnal™
%%score ( 1 2 ) ( 3 4 )
L:1/8
Q:1/4=100
M:4/4
K:Db
V:1 treble 
V:2 treble 
V:3 bass 
V:4 bass 
V:1
 [DF]>[EG] | [FA]>[Fd] [Af]>[Ge] [Fd]>[GB] [FA]>[EG] | [DF]2 [CE]>[CE] D2 [DF]>[EG] | %3
w: 1.~Is thy|heart op- pressed with sor- row? Lift thy|face to the light; Dost thou|
w: 2.~When thy|dear- est hopes shall fail thee, Lift thy|face to the light; When temp-|
w: 3.~Thro’ life’s|sun and sha- dow sing- ing, Lift thy|face to the light; In thy|
 [FA]>[Fd] [Af]>[Ge] [Fd]>[GB] [FA]>[Fd] | [Ec]2 [DB]>[DB] !fermata![CA]2 [CE]>[DF] | %5
w: dread a dark to- mor- row? Lift thy|face to the light. Still it|
w: ta- tions strong as- sail thee, Lift thy|face to the light. Clos- er|
w: heart God’s prais- es ring- ing, Lift thy|face to the light. O- ther|
 [EG]>[DF] [CE]>[DF] [EG]2 [DF]>[CE] | D>[CE] [DF]>[EG] [FA]2 [FA]>[FA] | %7
w: shines un- fail- ing- ly, Just be-|yond the clouds for thee, Love’s clear|
w: cling when sha- dows fall, God is|with thee thro’ them all, He will|
w: lives with grief bowed low, From thine|own may catch the glow, Learn love’s|
 [GB]>[Gc] [Gd]>[GB] ([FA]>[DF]) D>[EG] | [DF]2 [CE]>[CE] !fermata!D2 ||"^Refrain" [DF]>[EG] | %10
w: light, so full and free, * Lift thy|face to the light.||
w: hear thy faint- est call, * Lift thy|face to the light.|Lift thy|
w: full- est peace to know, * Lift thy|face to the light.||
 A4- (A>d) [Ac]>[GB] | A6 [EG]>[DF] | E4- (E>B) [CA]>[EG] | A6 [DF]>[EG] | %14
w: ||||
w: face * * to the|light, Lift thy|face * * to the|light, Soon all|
w: ||||
 [FA]>[EG] [DF]>[EG] [FA]2 [FA]>[FA] | [GB]>[Gc] [Gd]>[GB] [FA]2 [GB]>[GB] | A4- (A>d) [Ec]>[Ge] | %17
w: |||
w: clouds will pass a- way, Soon will|dawn the per- fect day, Lift thy|face * * to the|
w: |||
 d6 |] %18
w: |
w: light!|
w: |
V:2
 x2 | x8 | x4 D2 x2 | x8 | x8 | x8 | D3/2 x13/2 | x6 D3/2 x/ | x4 D2 || x2 | (F2 F>F F2) x2 | %11
 (F>FF>F F2) x2 | (C2 C>C C2) x2 | (DDD>D D2) x2 | x8 | x8 | (F2 F>F F2) x2 | (F2 G>G F2) |] %18
V:3
 [D,A,]>[D,A,] | [D,D]>[D,D] [D,D]>[D,D] [D,D]>[D,D] [D,D]>[D,A,] | %2
w: ~ ~|~ ~ ~ ~ ~ ~ ~ ~|
 [D,A,]2 [A,,A,]>[A,,G,] [D,F,]2 [D,A,]>[D,A,] | [D,D]>[D,D] [D,D]>[D,D] [D,D]>[D,D] [D,D]>[D,A,] | %4
w: ~ ~ ~ ~ ~ ~|~ ~ ~ ~ ~ ~ ~ ~|
 [E,A,]2 [E,=G,]>[E,G,] !fermata![A,,A,]2 [A,,A,]>[A,,A,] | %5
w: ~ ~ ~ ~ ~ ~|
 [A,,A,]>[A,,A,] [A,,A,]>[A,,A,] [A,,A,]2 [D,A,]>[D,G,] | %6
w: ~ ~ ~ ~ ~ ~ ~|
 [D,F,]>[D,F,] [D,A,]>[D,A,] [D,D]2 [D,D]>[D,D] | [G,D]>[G,C] [G,B,]>[G,D] (D>A,) [F,A,]>[G,B,] | %8
w: ~ ~ ~ ~ ~ ~ ~|~ ~ ~ ~ ~ * ~ ~|
 A,2 [A,,A,]>[A,,A,] !fermata![D,F,]2 || [D,A,]>[D,A,] | [D,D]2 [D,D]>[D,D] [D,D]2 [D,D]>[D,D] | %11
w: ~ ~ ~ ~|Lift thy|face to the light, to the|
 [D,D]>[D,D] [D,D]>[D,D] [D,D]2 [D,A,]>[D,A,] | [A,,A,]2 [A,,A,]>[A,,A,] [A,,A,]2 [A,,A,]>[A,,A,] | %13
w: bless- èd, bless- èd light, Lift thy|face to the light, to the|
 [D,A,][D,A,] [D,A,]>[D,A,] [D,A,]2 [D,A,]>[D,A,] | %14
w: bless- èd, gold- en light, ~ ~|
 [D,A,]>[D,A,] [D,A,]>[D,A,] [D,D]2 [D,D]>[D,D] | [G,D]>[G,C] [G,B,]>[G,D] [D,D]2 [G,D]>[G,D] | %16
w: ~ ~ ~ ~ ~ ~ ~|~ ~ ~ ~ ~ ~ ~|
 [A,D]2 [A,D]>[A,D] [A,D]2 A,>A, | A,2 B,>B, A,2 |] %18
w: ~ Lift thy face, ~ ~|~ bless- èd light!|
V:4
 x2 | x8 | x8 | x8 | x8 | x8 | x8 | x4 D,2 x2 | A,2 x4 || x2 | x8 | x8 | x8 | x8 | x8 | x8 | %16
 x6 A,>A, | D,6 |] %18

